X:716
%%etbk:tnset id:429,pos:3,rep:3x,ant:
%%etbk:wsite https://thesession.org/tunes/181
%%etbk:pldat 2016-09-04T13:59,2016-08-04T19:15,2016-07-12T17:04,2016-06-12T15:16,2016-04-23T17:05,2016-04-18T18:55,2016-04-02T15:38,2016-03-15T17:35,2016-03-14T18:49,2016-01-27T17:18,2016-01-20T17:41,2016-01-17T14:52,2016-01-12T18:16,2016-01-02T13:44,2015-12-22T16:39,2015-12-15T17:24,2015-11-28T16:16,2015-11-25T16:43,2015-11-24T18:04,2015-10-20T17:48,2015-10-17T15:30,2015-10-14T17:11,2015-10-12T18:13,2015-10-07T17:11,2015-10-01T18:55,2015-09-30T17:19,2015-09-06T14:26,2015-08-18T17:49,2015-08-15T14:05,2015-08-14T15:18,2015-08-13T18:56,2015-08-11T17:31,2015-08-09T14:45,2015-08-04T17:37,2015-08-02T12:10,2015-08-01T17:18,2015-07-31T18:39,2015-07-29T17:55,2015-07-27T19:38,2015-07-25T15:03,2015-07-24T18:29,2015-07-23T19:03,2015-07-22T16:54,2015-07-19T15:38,2015-07-07T09:27,2015-06-09T18:05,2015-06-05T17:40,2015-05-31T15:57,2015-05-10T11:59,2015-05-06T17:29,2015-05-05T18:01,2015-05-02T16:19,2015-04-30T20:15
T: The Fisherman's Island
Z: Piano Box Version by Martin Fleischmann
H: Created 2015-04-29 /  Last Modified 2015-05-06
R: reel
M: 4/4
L: 1/8
K: Dmaj
!1!DE!2!FA !5!d3 !3!A | !4!BAGB !3!A!2!FDF | !3!G!1!EEE !1!EFG!4!A | !2!(3Bcd ed !3!c!1!AA!4!g |
!3!f!1!d ~d2 !2!e!1!d!3!c!1!A | !2!BcdB !1!A!3!G!2!FD | !1!EFGA !2!(3Bcd ed |1 !3!c!1!A!4!G!2!E FDCE :|2 cAGE D2 z2 ||
|: !4!f!2!d ~d2 !1!A!2!F ~F2 | !1!D!2!F!3!A!5!d !3!fdef | !4!g!2!e~e2 !5!b!2!e!1!c!2!e | !1!dfe!1!d !4!cA!1!G!2!E |
!1!D!2!F~F2 !1!Add!1!A | !1!B2!4!gf e!1!d!3!cB | !1!Ad!3!fa !4!g!5!b!2!ed |1 !4!cAGE D2 z2 :|2 !4!cAGE FDCE ||


